X: 1734
T: THE CUCKOO'S NEST
M:2/4
L:1/16
B:O'NEILL'S 1734
N:"2nd setting"   "collected by F. O'Neill"
Z:Transcribed by A.LEE WORMAN
K:G
(dc)|BABG GBdg|fdcB cedc|BABG FGAB|c2A2 A2(dc)|
BABG GBdg|fdcB cedc|BABG FGAc|B2G2 G2:|
|:(Bc)|dBGB dBGB|dcBA G2(AB)|cAFA cAFA|cBAG F2(BA)|
GABc d2g2|fdcB cedc|BABG FGAc|B2G2 G2:|
|:(Bc)|dggf gabg|afd^c d2(de)|=fede ^fgaf|gfdB cedc|
BABG GBdg|fdcB cedc|BABG FGAc|B2G2 G2:|


